X:406
T:Puirt-a-beul
R:Reel
S:SF Scottish Fiddlers Handout
Z:Transcription, chords:Mike Long
M:C|
L:1/8
K:D
"A"AAe2 AAAA|"G"BBA2 GGGG|"A"AAe2 AAAA|"G"AGEG "A"A2A2:|
|:"A"A2A2 "Em"GEED|"G"G2GG GABG|"Am"A2A=c "G"BAAG|"Em"AABG "Am"A2A2:|
